X: 43108
T: Windsong
R: waltz
M: 3/4
K: Amixolydian
|:d>c B2 F2|E<D E>F A<F|d>c B2 F2|E<D E<F A2|
d>c B2 F2|E<D E>F A<F|E<D E>F A>F|G>B (3ABc d2:|
|:B2-B>A B<d|F3E (3DFA|B2 B>A (3Bcd|e>d f>e (3dBA|
B2 -B>A (3Bcd|F2 F>E (3DEF|E2 F2 A>F|G>B (3ABc d2:|

